images_elementary_svg/cmd/32/insertmenutitles.svg

<svg height="32" viewBox="0 0 32 32" width="32" xmlns="http://www.w3.org/2000/svg" xmlns:xlink="http://www.w3.org/1999/xlink"><linearGradient id="a" gradientUnits="userSpaceOnUse" x1="18.635593" x2="9" xlink:href="#g" y1="18.682203" y2="6.580508"/><linearGradient id="b" gradientTransform="matrix(.75000188 0 0 .75000188 11.975183 8.976485)" gradientUnits="userSpaceOnUse" x1="12.031344" x2="12.031344" xlink:href="#c" y1="3.031343" y2="12.031343"/><linearGradient id="c" gradientTransform="translate(15.968656 11.968657)" gradientUnits="userSpaceOnUse" x1="12.031344" x2="12.031344" y1="3.031343" y2="12.031343"><stop offset="0" stop-color="#fff"/><stop offset="0" stop-color="#fff" stop-opacity=".235294"/><stop offset="1" stop-color="#fff" stop-opacity=".156863"/><stop offset="1" stop-color="#fff" stop-opacity=".392157"/></linearGradient><linearGradient id="d" gradientTransform="matrix(.74999244 0 0 .74999244 -5.290008 1.487529)" gradientUnits="userSpaceOnUse" x1="14.551723" x2="14.551723" xlink:href="#c" y1="9.016707" y2="22.01687"/><linearGradient id="e" gradientUnits="userSpaceOnUse" x1="25.635593" x2="16" xlink:href="#g" y1="18.682203" y2="6.580508"/><linearGradient id="f"><stop offset="0" stop-color="#737373"/><stop offset=".26238" stop-color="#636363"/><stop offset=".704952" stop-color="#4b4b4b"/><stop offset="1" stop-color="#3f3f3f"/></linearGradient><linearGradient id="g"><stop offset="0" stop-opacity=".658824"/><stop offset="1" stop-color="#5c5c5c"/></linearGradient><radialGradient id="h" cx="-1.473815" cy="-42.064499" gradientTransform="matrix(-2.8642857 .00000019 -.00000015 -2.1857141 8.778565 -80.012447)" gradientUnits="userSpaceOnUse" r="10" xlink:href="#f"/><radialGradient id="i" cx="-1.473815" cy="-42.064499" gradientTransform="matrix(-.00000019 -2.8642857 2.1857141 -.00000015 104.01244 8.778566)" gradientUnits="userSpaceOnUse" r="10" xlink:href="#f"/><g stroke-linejoin="round" stroke-width=".750002" transform="matrix(1.33333 0 0 1.33333 .00004 .00004)"><g stroke-linecap="round"><path d="m14.625006 10.124995h3.75001v9.000024h-3.75001z" fill="url(#e)" stroke="#000" stroke-opacity=".6" stroke-width=".750002"/><path d="m7.8749897 7.1249879 3.7500093-.0000001v12.0000312h-3.7500093z" fill="url(#a)" stroke="#000" stroke-opacity=".6" stroke-width=".750002"/><g fill="none"><path d="m8.5871019 7.8749897h2.2865861v10.5000263h-2.2500055z" opacity=".7" stroke="url(#d)" stroke-width=".749992"/><path d="m15.373699 10.874997h2.250007v7.500019h-2.250007z" opacity=".7" stroke="url(#b)" stroke-width=".750002"/><path d="m2.6249766 19.124967v.750053c6.333334-.01 12.4167144.01 18.7500464 0v-.750002h-18.7500464z" stroke="url(#h)"/><path d="m4.8750332 2.6249766h-.7480528-.002c.01 6.3333345-.00999 12.4167144 0 18.7500464h.7500018v-18.7500464z" stroke="url(#i)"/></g></g><g fill="#fcaf3e" stroke="#ce5c00" stroke-miterlimit="0"><path d="m7.1249879 2.624977 12.7500321-.0000004v1.5000037l-12.7500321.0000004z" stroke-width=".750002"/><path d="m7.1249878 21.375023h12.7500322v1.500004h-12.7500322z"/><path d="m2.2499756 4.4999812v12.7500318h-1.50000398v-12.7500318z"/></g></g></svg>

<?xml version="1.0" encoding="UTF-8" standalone="no"?>
<svg
   xmlns:dc="http://purl.org/dc/elements/1.1/"
   xmlns:cc="http://creativecommons.org/ns#"
   xmlns:rdf="http://www.w3.org/1999/02/22-rdf-syntax-ns#"
   xmlns:svg="http://www.w3.org/2000/svg"
   xmlns="http://www.w3.org/2000/svg"
   xmlns:xlink="http://www.w3.org/1999/xlink"
   xmlns:sodipodi="http://sodipodi.sourceforge.net/DTD/sodipodi-0.dtd"
   xmlns:inkscape="http://www.inkscape.org/namespaces/inkscape"
   height="32"
   viewBox="0 0 32 32"
   width="32"
   version="1.1"
   id="svg44"
   sodipodi:docname="insertmenutitles.svg"
   inkscape:version="0.92.4 (unknown)"
   inkscape:export-filename="/home/rizmut/Dokumen/Rizmut/Github/libreoffice-style-elementary/images_elementary/cmd/32/insertmenutitles.png"
   inkscape:export-xdpi="96"
   inkscape:export-ydpi="96">
  <metadata
     id="metadata50">
    <rdf:RDF>
      <cc:Work
         rdf:about="">
        <dc:format>image/svg+xml</dc:format>
        <dc:type
           rdf:resource="http://purl.org/dc/dcmitype/StillImage" />
      </cc:Work>
    </rdf:RDF>
  </metadata>
  <defs
     id="defs48">
    <linearGradient
       id="d-8"
       gradientUnits="userSpaceOnUse"
       x1="18.635593"
       x2="9"
       xlink:href="#c"
       y1="18.682203"
       y2="6.5805082" />
    <linearGradient
       id="linearGradient893">
      <stop
         offset="0"
         stop-opacity=".658824"
         id="stop12-5" />
      <stop
         offset="1"
         stop-color="#5c5c5c"
         id="stop14-9" />
    </linearGradient>
    <linearGradient
       y2="12.031343"
       x2="12.031344"
       y1="3.031343"
       x1="12.031344"
       gradientTransform="matrix(0.75000188,0,0,0.75000188,11.975183,8.9764851)"
       gradientUnits="userSpaceOnUse"
       id="linearGradient1884"
       xlink:href="#g"
       inkscape:collect="always" />
    <linearGradient
       gradientTransform="translate(15.968656,11.968657)"
       id="g"
       gradientUnits="userSpaceOnUse"
       x1="12.031344"
       x2="12.031344"
       y1="3.031343"
       y2="12.031343">
      <stop
         offset="0"
         stop-color="#fff"
         id="stop1239" />
      <stop
         offset="0"
         stop-color="#fff"
         stop-opacity=".235294"
         id="stop1241" />
      <stop
         offset="1"
         stop-color="#fff"
         stop-opacity=".156863"
         id="stop1243" />
      <stop
         offset="1"
         stop-color="#fff"
         stop-opacity=".392157"
         id="stop1245" />
    </linearGradient>
    <linearGradient
       gradientTransform="matrix(0.74999244,0,0,0.74999244,-5.2900083,1.487529)"
       id="b-3-0"
       gradientUnits="userSpaceOnUse"
       x1="14.551723"
       x2="14.551723"
       xlink:href="#g"
       y1="9.0167065"
       y2="22.01687" />
    <linearGradient
       id="b-7"
       gradientUnits="userSpaceOnUse"
       x1="25.635593"
       x2="16"
       xlink:href="#c"
       y1="18.682203"
       y2="6.5805082" />
  </defs>
  <sodipodi:namedview
     pagecolor="#ffffff"
     bordercolor="#666666"
     borderopacity="1"
     objecttolerance="10"
     gridtolerance="10"
     guidetolerance="10"
     inkscape:pageopacity="0"
     inkscape:pageshadow="2"
     inkscape:window-width="1360"
     inkscape:window-height="714"
     id="namedview46"
     showgrid="true"
     inkscape:zoom="10.429825"
     inkscape:cx="20.948624"
     inkscape:cy="17.867653"
     inkscape:window-x="0"
     inkscape:window-y="28"
     inkscape:window-maximized="1"
     inkscape:current-layer="g42">
    <inkscape:grid
       type="xygrid"
       id="grid860" />
  </sodipodi:namedview>
  <linearGradient
     id="a">
    <stop
       offset="0"
       stop-color="#737373"
       id="stop2" />
    <stop
       offset=".26238"
       stop-color="#636363"
       id="stop4" />
    <stop
       offset=".704952"
       stop-color="#4b4b4b"
       id="stop6" />
    <stop
       offset="1"
       stop-color="#3f3f3f"
       id="stop8" />
  </linearGradient>
  <linearGradient
     id="b"
     gradientUnits="userSpaceOnUse"
     x1="25.635593"
     x2="16"
     xlink:href="#c"
     y1="18.682203"
     y2="6.580508" />
  <linearGradient
     id="c">
    <stop
       offset="0"
       stop-opacity=".658824"
       id="stop12" />
    <stop
       offset="1"
       stop-color="#5c5c5c"
       id="stop14" />
  </linearGradient>
  <linearGradient
     id="d"
     gradientUnits="userSpaceOnUse"
     x1="18.635593"
     x2="9"
     xlink:href="#c"
     y1="18.682203"
     y2="6.580508"
     gradientTransform="translate(-4.1250103,1.1250029)" />
  <radialGradient
     id="e"
     cx="-1.473815"
     cy="-42.064499"
     gradientTransform="matrix(-2.8642857 .00000019 -.00000015 -2.1857141 8.778565 -80.012447)"
     gradientUnits="userSpaceOnUse"
     r="10"
     xlink:href="#a" />
  <radialGradient
     id="f"
     cx="-1.473815"
     cy="-42.064499"
     gradientTransform="matrix(-.00000019 -2.8642857 2.1857141 -.00000015 104.01244 8.778566)"
     gradientUnits="userSpaceOnUse"
     r="10"
     xlink:href="#a" />
  <g
     stroke-linejoin="round"
     stroke-width=".750002"
     transform="matrix(1.33333 0 0 1.33333 .00004 .00004)"
     id="g42">
    <g
       stroke-linecap="round"
       id="g30">
      <g
         id="g911">
        <path
           style="opacity:1;fill:url(#b-7);stroke:#000000;stroke-width:0.75000188;stroke-opacity:0.6;stroke-miterlimit:4;stroke-dasharray:none"
           id="path20-5"
           d="m 14.625006,10.124995 h 3.75001 v 9.000024 h -3.75001 z"
           inkscape:connector-curvature="0" />
        <path
           style="opacity:1;fill:url(#d-8);stroke:#000000;stroke-width:0.75000185;stroke-miterlimit:4;stroke-dasharray:none;stroke-opacity:0.6"
           id="path22-3"
           d="m 7.8749897,7.1249879 3.7500093,-10e-8 V 19.125019 H 7.8749897 Z"
           inkscape:connector-curvature="0" />
        <path
           sodipodi:nodetypes="ccccc"
           id="path31"
           d="M 8.5871019,7.8749897 H 10.873688 V 18.375016 H 8.6236825 Z"
           style="opacity:0.7;fill:none;stroke:url(#b-3-0);stroke-width:0.74999243"
           inkscape:connector-curvature="0" />
        <path
           sodipodi:nodetypes="ccccc"
           id="path1258"
           d="m 15.373699,10.874997 h 2.250007 v 7.500019 h -2.250007 z"
           style="opacity:0.7;fill:none;stroke:url(#linearGradient1884);stroke-width:0.75000185;stroke-miterlimit:4;stroke-dasharray:none"
           inkscape:connector-curvature="0" />
      </g>
      <g
         fill="none"
         id="g28">
        <path
           d="m2.6249766 19.124967v.750053c6.333334-.01 12.4167144.01 18.7500464 0v-.750002h-18.7500464z"
           stroke="url(#e)"
           id="path24" />
        <path
           d="m4.8750332 2.6249766h-.7480528-.002c.01 6.3333345-.00999 12.4167144 0 18.7500464h.7500018v-18.7500464z"
           stroke="url(#f)"
           id="path26" />
      </g>
    </g>
    <path
       sodipodi:nodetypes="ccccc"
       inkscape:connector-curvature="0"
       style="fill:#fcaf3e;fill-opacity:1;stroke:#ce5c00;stroke-width:0.75000191;stroke-miterlimit:0;stroke-dasharray:none;stroke-opacity:1"
       id="path34"
       d="m 7.1249879,2.624977 12.7500321,-4e-7 v 1.5000037 l -12.7500321,4e-7 z" />
    <path
       sodipodi:nodetypes="ccccc"
       inkscape:connector-curvature="0"
       style="fill:#fcaf3e;fill-opacity:1;stroke:#ce5c00;stroke-miterlimit:0;stroke-opacity:1"
       id="path36"
       d="M 7.1249878,21.375023 H 19.87502 v 1.500004 H 7.1249878 Z" />
    <path
       sodipodi:nodetypes="ccccc"
       inkscape:connector-curvature="0"
       style="fill:#fcaf3e;fill-opacity:1;stroke:#ce5c00;stroke-miterlimit:0;stroke-opacity:1"
       id="path38"
       d="M 2.2499756,4.4999812 V 17.250013 H 0.74997162 V 4.4999812 Z" />
  </g>
</svg>
